src/images/xpIcon.svg

<svg height="100" width="100" xmlns="http://www.w3.org/2000/svg"><path d="m50 7.5-42.5 42.5 38.75 37.75v-30.25h-8.75l12.5-26.25 12.5 26.25h-8.75v30.25l38.75-37.75z"/></svg>

<svg version="1.1" id="xp_icon" width="100" height="100" xmlns="http://www.w3.org/2000/svg">
<path id="svg_3" d="M50,7.5L7.5,50L46.25,87.75L46.25,57.5L37.5,57.5L50,31.25L62.5,57.5L53.75,57.5L53.75,87.75L92.5,50z"/>
</svg>
